svg/fluentui-system-icons/ic_fluent_person_board_28_regular.svg

<svg width="28" height="28" viewBox="0 0 28 28" fill="none" xmlns="http://www.w3.org/2000/svg">
<path d="M6.75 3C4.67893 3 3 4.67893 3 6.75V18.25C3 20.3211 4.67893 22 6.75 22H18.25C20.3211 22 22 20.3211 22 18.25V6.75C22 4.67893 20.3211 3 18.25 3H6.75ZM4.5 6.75C4.5 5.50736 5.50736 4.5 6.75 4.5H18.25C19.4926 4.5 20.5 5.50736 20.5 6.75V18.25C20.5 19.4926 19.4926 20.5 18.25 20.5H6.75C5.50736 20.5 4.5 19.4926 4.5 18.25V6.75ZM9.24987 24.5C8.01032 24.5 6.91125 23.8986 6.22852 22.9717C6.39995 22.9904 6.57413 23 6.75055 23H18.2506L18.2611 23H18.7499C21.0971 23 22.9999 21.0972 22.9999 18.75V18.3314C23.0003 18.3043 23.0006 18.2772 23.0006 18.25V6.75002C23.0006 6.57403 22.991 6.40027 22.9723 6.22925C23.8988 6.91203 24.4999 8.01082 24.4999 9.25001V18.75C24.4999 21.9256 21.9255 24.5 18.7499 24.5H9.24987ZM7 14.875C7 13.8395 7.83947 13 8.875 13H16.125C17.1605 13 18 13.8395 18 14.875C18 16.2722 17.3183 17.3405 16.2703 18.0283C15.2513 18.697 13.9061 19 12.5 19C11.0939 19 9.74866 18.697 8.72972 18.0283C7.68172 17.3405 7 16.2722 7 14.875ZM8.875 14.5C8.66789 14.5 8.5 14.6679 8.5 14.875C8.5 15.7146 8.8816 16.3338 9.55276 16.7743C10.253 17.2338 11.2827 17.5 12.5 17.5C13.7173 17.5 14.747 17.2338 15.4472 16.7743C16.1184 16.3338 16.5 15.7146 16.5 14.875C16.5 14.6679 16.3321 14.5 16.125 14.5H8.875ZM11 9C11 8.17157 11.6716 7.5 12.5 7.5C13.3284 7.5 14 8.17157 14 9C14 9.82843 13.3284 10.5 12.5 10.5C11.6716 10.5 11 9.82843 11 9ZM12.5 6C10.8431 6 9.5 7.34315 9.5 9C9.5 10.6569 10.8431 12 12.5 12C14.1569 12 15.5 10.6569 15.5 9C15.5 7.34315 14.1569 6 12.5 6Z" fill="#212121"/>
</svg>

<svg xmlns="http://www.w3.org/2000/svg" width="28" height="28"><path d="M6.75 3A3.75 3.75 0 0 0 3 6.75v11.5A3.75 3.75 0 0 0 6.75 22h11.5A3.75 3.75 0 0 0 22 18.25V6.75A3.75 3.75 0 0 0 18.25 3H6.75ZM4.5 6.75A2.25 2.25 0 0 1 6.75 4.5h11.5a2.25 2.25 0 0 1 2.25 2.25v11.5a2.25 2.25 0 0 1-2.25 2.25H6.75a2.25 2.25 0 0 1-2.25-2.25V6.75ZM9.25 24.5a3.745 3.745 0 0 1-3.021-1.528c.17.018.345.028.522.028H18.75A4.25 4.25 0 0 0 23 18.75v-12c0-.176-.009-.35-.028-.52A3.745 3.745 0 0 1 24.5 9.25v9.5a5.75 5.75 0 0 1-5.75 5.75h-9.5ZM7 14.875C7 13.839 7.84 13 8.875 13h7.25C17.16 13 18 13.84 18 14.875c0 1.397-.682 2.465-1.73 3.153-1.019.669-2.364.972-3.77.972-1.406 0-2.751-.303-3.77-.972C7.682 17.34 7 16.272 7 14.875Zm1.875-.375a.375.375 0 0 0-.375.375c0 .84.382 1.459 1.053 1.9.7.459 1.73.725 2.947.725s2.247-.266 2.947-.726c.671-.44 1.053-1.06 1.053-1.899a.375.375 0 0 0-.375-.375h-7.25ZM11 9a1.5 1.5 0 1 1 3 0 1.5 1.5 0 0 1-3 0Zm1.5-3a3 3 0 1 0 0 6 3 3 0 0 0 0-6Z"/></svg>
